X:1
T:The Blackthorn Stick
M:6/8
R:Jig
S:phelan-1/03
L:1/8
K:G
d | gfg ege | dBG AGE | DGG FGA | BGB A2d  |
    gfg ege | dBG AGE | DGG FGA | BGG G2  ||
d | edd gdd | edd gdd | ede gfg | edB A2d  |
    gfg age | dBG AGE | DGG FGA | BGG G2   |]

